apps/common/mobile/resources/icons/common/icon-table-add-column-right.svg

<svg width="24" height="24" viewBox="0 0 24 24" xmlns="http://www.w3.org/2000/svg">
<path d="M19.75 3.5459C20.7165 3.5459 21.5 4.3294 21.5 5.2959V14.2959C21.5 14.7101 21.1642 15.0459 20.75 15.0459C20.7499 14.7022 20.7501 14.3098 20.75 13.8564L20.749 13.8574C20.749 12.3382 19.5183 11.1072 18.001 11.1064C16.4822 11.1064 15.25 12.3386 15.25 13.8574V15.0459H9.5V18.5459H10.75C11.1642 18.5459 11.5 18.8817 11.5 19.2959C11.5 19.7101 11.1642 20.0459 10.75 20.0459H3.75C2.78356 20.0459 2.00008 19.2623 2 18.2959V5.2959C2 4.3294 2.78351 3.5459 3.75 3.5459H19.75ZM3.5 18.2959C3.50008 18.4339 3.61198 18.5459 3.75 18.5459H8V15.0459H3.5V18.2959ZM3.5 13.5459H8V10.0459H3.5V13.5459ZM9.5 13.5459H14V10.0459H9.5V13.5459ZM3.75 5.0459C3.61193 5.0459 3.5 5.15783 3.5 5.2959V8.5459H8V5.0459H3.75ZM9.5 8.5459H14V5.0459H9.5V8.5459Z" fill="#444444"/>
<path d="M18 13.1064C18.4141 13.1066 18.75 13.4423 18.75 13.8564L18.751 17.1064H22C22.4141 17.1065 22.75 17.4423 22.75 17.8564C22.75 18.2706 22.4141 18.6064 22 18.6064H18.751L18.75 21.8564C18.75 22.2706 18.4141 22.6063 18 22.6064C17.5858 22.6064 17.25 22.2706 17.25 21.8564L17.251 18.6064H14C13.5858 18.6064 13.25 18.2706 13.25 17.8564C13.25 17.4422 13.5858 17.1064 14 17.1064H17.251L17.25 13.8564C17.25 13.4423 17.5858 13.1065 18 13.1064Z" fill="#446ECA"/>
</svg>

<svg xmlns="http://www.w3.org/2000/svg" width="24" height="24" fill="none" viewBox="0 0 24 24">
  <g class="icon-table-add-column-right">
    <path fill="#446ECA" d="M18.75 13.856a.75.75 0 0 0-1.5 0v3.25H14a.75.75 0 0 0 0 1.5h3.25v3.25a.75.75 0 1 0 1.5 0v-3.25H22a.75.75 0 0 0 0-1.5h-3.25v-3.25Z" class="icon-fill-blue-primary"/>
    <path fill="#444" fill-rule="evenodd" d="M19.75 3.546c.966 0 1.75.783 1.75 1.75v9a.75.75 0 0 1-.75.75v-1.19l-.001.001a2.75 2.75 0 1 0-5.499 0v1.189H9.5v3.5h1.25a.75.75 0 0 1 0 1.5h-7A1.75 1.75 0 0 1 2 18.296v-13c0-.967.784-1.75 1.75-1.75h16ZM3.5 18.296c0 .138.112.25.25.25H8v-3.5H3.5v3.25Zm0-4.75H8v-3.5H3.5v3.5Zm6 0H14v-3.5H9.5v3.5Zm-5.75-8.5a.25.25 0 0 0-.25.25v3.25H8v-3.5H3.75Zm5.75 3.5H14v-3.5H9.5v3.5Z" class="icon-fill-gray-primary" clip-rule="evenodd"/>
  </g>
</svg>
